X:116
T:McAleer's Jig*
B:NFID.231a ("untitled jig")
116mcal
S:JL
L:1/8
M:6/8
R:jig
Q:320
K:D
f|a2f def|gfg efg|afd def|ecA A2e|
aff def|gfg efg|agf a/g/fe|d3 d2:|
A|dAA AAA|BAA FAA|dcd ede|fed def|
gag fgf|ecA ABA|BAA fAA|Add d2:|

%%%

